X:036 
T:Dairy Maid, The  
S:Grier MS
F:file ID: cre.4/036dairy_m
B:CRE4.050 (CailÃÂÃÂÃÂÃÂ­n DÃÂÃÂÃÂÃÂ©irÃÂÃÂÃÂÃÂ­)
Q:160
L:1/8
M:12/8
R:jig
K:Am
AcA AcA BdB BAG|AcA AcA B3 g3|
[1 "5"AcA AcA BdB BAG|g^fe dcB A3 E3:|
[2 "5a"AcA AcA BdB BAG|g^fe dcB A3 f3||
"9"g2e e2^f gfe dcB|^f2e e2f g3 a2f|
"13"g2e e2^f gfe dcB|ege dcB A3 ^f3|
"17"g2e e2^f gfe dcB|g2e e2^f g3 a3|
"21"b2g a2^f gfe dcB|g^fe dcB A3 E3|]

%%%

